X:1
T:Title
%%score ( 1 2 ) ( 3 4 )
L:1/8
Q:1/4=100
M:4/4
K:Db
V:1 treble nm="Midi_20"
V:2 treble 
V:3 bass nm="Midi_20"
V:4 bass 
V:1
"^Horeb (6 4. 6 6.)""^Henry Smart\n(1813-1879)""^tr. Edward Caswall\n(1814-78)""^The sun is sinking fast" A2 | %1
w: The|
w: As|
w: So|
w: So|
w: Save|
w: Thus|
w: One|
 A2 A2 B2 B2 | A6 F2 | A4 B4 | (d4 c2) || c2 | d2 B2 A2 =G2 | e2 _G2 F2 G2 | A4 (E3 F) | D6 |] %10
w: sun is sink- ing|fast, The|day- light|dies: *|Let|love a- wake, and|pay Her eve- ning|sac- ri\- *|fice.|
w: Christ up- on the|cross In|death re-|clined, *|And|to His Fa- ther's|hands His part- ing|soul re\- *|signed.|
w: now her- self my|soul Would|whol- ly|give *|In-|to His sac- red|charge, In whom all|spi- rits *|live;|
w: now be- neath His|eye Would|calm- ly|rest, *|With-|out a wish or|thought A- bid- ing|in the *|breast,|
w: that His will be|done, What-|e'er be-|tide, *|Dead|to her- self, and|dead In Him to|all be\- *|side.|
w: would I live; yet|now Not|I, but|He *|In|all His power and|love Hence- forth a-|live in *|me.|
w: sac- red Tri- ni-|ty, One|Lord di-|vine; *|My-|self for e- ver|His, And He for|e- ver *|mine.|
V:2
 D2 | D2 D2 D2 D2 | D6 D2 | E4 E4 | E6 || E2 | D2 F2 E2 E2 | E2 E2 D2 D2 | D4 C4 | D6 |] %10
V:3
 F,2 | F,2 F,2 F,2 F,2 | F,6 A,2 | A,6 =G,2 | (B,4 A,2) || _G,2 | F,2 D2 C2 B,2 | A,2 A,2 A,2 G,2 | %8
 F,4 (G,3 A,) | F,6 |] %10
V:4
 D,2 | D,2 D,2 B,,2 B,,2 | D,6 D,2 | C,4 E,4 | A,,6 || A,,2 | B,,2 B,,2 E,2 D,2 | %7
 C,2 C,2 D,2 B,,2 | A,,4 A,,4 | D,6 |] %10

